images/sfp.svg

<svg width="115" height="80" viewBox="0 0 115 80" fill="none" xmlns="http://www.w3.org/2000/svg">
<path d="M98.0328 69.4113C75.7888 82.305 39.724 82.305 17.4799 69.4113C-4.76414 56.5176 -4.76414 35.6128 17.4799 22.7191C39.724 9.82541 75.7888 9.82541 98.0328 22.7191C120.277 35.6128 120.277 56.5176 98.0328 69.4113Z" fill="url(#paint0_linear_1812_47286)"/>
<path d="M96.9203 65.7816C75.2875 78.2702 40.2138 78.2702 18.581 65.7816C8.36806 59.8857 2.97669 52.2604 2.40688 44.5385L2.35938 33.7674C2.50461 41.8398 7.9118 49.8865 18.581 56.0458C40.2138 68.5345 75.2875 68.5345 96.9203 56.0458C107.545 49.9122 112.951 41.9069 113.14 33.8684V32.998C113.147 33.2881 113.147 33.5783 113.14 33.8684V43.6039C112.952 51.6425 107.545 59.6479 96.9203 65.7816Z" fill="#79EFBD" stroke="#0D0B33" stroke-width="0.59185"/>
<path d="M96.9233 55.5429C75.2905 68.0315 40.2168 68.0315 18.584 55.5429C-3.04882 43.0543 -3.04882 22.8062 18.584 10.3176C40.2168 -2.17098 75.2905 -2.17098 96.9233 10.3176C118.556 22.8062 118.556 43.0543 96.9233 55.5429Z" fill="#F7F6FF" stroke="#0D0B33" stroke-width="0.59185"/>
<path d="M76.2643 17.7063C74.9768 16.9631 73.2306 16.5455 71.4098 16.5455L42.8086 16.5457C41.7253 16.5457 40.7446 16.7992 40.0347 17.209C39.3248 17.6188 38.8857 18.185 38.8857 18.8104L38.8857 29.6308L55.4767 20.0528C56.7149 19.338 58.7144 19.3334 59.9526 20.0482C65.1836 23.0681 77.9165 30.4188 79.6533 31.4214L100.021 31.4214L76.2643 17.7063Z" fill="#0D0B33"/>
<path d="M35.7843 31.4217L55.4771 42.7904C56.7153 43.5052 58.7228 43.5052 59.9609 42.7904L76.552 33.2123L76.5519 44.0327C76.5519 44.6581 76.1128 45.2243 75.4029 45.6341C74.693 46.044 73.7123 46.2975 72.629 46.2975L44.0278 46.2976C42.207 46.2976 40.4608 45.8801 39.1733 45.1368L15.4163 31.4217L35.7843 31.4217Z" fill="#0D0B33"/>
<path d="M2.35938 36.8438C5.51896 44.8036 7.96082 48.4617 14.6692 52.231V63.0021C8.54391 58.6668 5.26449 56.0065 2.35938 46.8455V36.8438Z" fill="#0D0B33"/>
<path d="M19.2852 56.0801L23.9013 58.3882V69.1593L19.2852 66.8512V56.0801Z" fill="#0D0B33"/>
<defs>
<linearGradient id="paint0_linear_1812_47286" x1="-27.4473" y1="20.0839" x2="-21.5789" y2="71.7833" gradientUnits="userSpaceOnUse">
<stop stop-color="white"/>
<stop offset="1" stop-color="white" stop-opacity="0"/>
</linearGradient>
</defs>
</svg>

<svg xmlns="http://www.w3.org/2000/svg" width="115" height="80" fill="none"><path fill="url(#a)" d="M98.033 69.411c-22.244 12.894-58.309 12.894-80.553 0-22.244-12.893-22.244-33.798 0-46.692 22.244-12.894 58.309-12.894 80.553 0s22.244 33.799 0 46.692Z"/><path fill="#79EFBD" stroke="#0D0B33" stroke-width=".592" d="M96.92 65.782c-21.633 12.488-56.706 12.488-78.339 0C8.368 59.886 2.977 52.26 2.407 44.539l-.048-10.772c.146 8.073 5.553 16.12 16.222 22.279 21.633 12.488 56.706 12.488 78.34 0 10.624-6.134 16.03-14.14 16.219-22.178v-.87c.007.29.007.58 0 .87v9.736c-.188 8.038-5.595 16.044-16.22 22.178Z"/><path fill="#F7F6FF" stroke="#0D0B33" stroke-width=".592" d="M96.923 55.543c-21.633 12.488-56.706 12.488-78.339 0-21.633-12.489-21.633-32.737 0-45.225 21.633-12.489 56.706-12.489 78.34 0 21.632 12.488 21.632 32.736 0 45.225Z"/><path fill="#0D0B33" d="M76.264 17.706c-1.287-.743-3.033-1.16-4.854-1.16H42.809c-1.084 0-2.064.253-2.774.663-.71.41-1.15.976-1.15 1.601v10.82l16.592-9.577c1.238-.715 3.237-.72 4.476-.005l19.7 11.373h20.368L76.264 17.706ZM35.784 31.422 55.477 42.79c1.238.715 3.246.715 4.484 0l16.591-9.578v10.82c0 .626-.44 1.192-1.15 1.602-.709.41-1.69.663-2.773.663H44.028c-1.821 0-3.567-.417-4.855-1.16L15.416 31.422h20.368ZM2.36 36.844c3.159 7.96 5.6 11.618 12.31 15.387v10.771c-6.126-4.335-9.406-6.995-12.31-16.157V36.845ZM19.285 56.08l4.616 2.308V69.16l-4.616-2.308v-10.77Z"/><defs><linearGradient id="a" x1="-27.447" x2="-21.579" y1="20.084" y2="71.783" gradientUnits="userSpaceOnUse"><stop stop-color="#fff"/><stop offset="1" stop-color="#fff" stop-opacity="0"/></linearGradient></defs></svg>
